X: 29998
T: Off Day
R: reel
M: 4/4
K: Dmajor
|:a3 g egde|cABG E3 D|EGBd edcA|gAfe dcAG|
abag e2 ed|cABG EGBG|AB=cd eBdB|AgdB AB=ce:|
|:d2 dg fg f2-|fgfe d2 BG|dBdg fg f2-|fgab agfe|
dBdg fg f2-|fgfe d2 BG|AB=cd eBdB|AgdB AB=ce:|

